public/assets/logo-horizontal.svg

<svg width="607" height="129" viewBox="0 0 607 129" fill="none" xmlns="http://www.w3.org/2000/svg">
<path d="M195.006 40.8787C200.601 40.8787 205.209 41.9978 208.83 44.236C212.451 46.4742 215.084 49.3378 216.73 52.8268C218.375 56.3158 219.198 60.0352 219.198 63.9849C219.198 67.8689 218.375 71.5225 216.73 74.9456C215.084 78.3688 212.451 81.1994 208.83 83.4377C205.209 85.61 200.601 86.6962 195.006 86.6962H180.787V110H170.813V40.8787H195.006ZM193.623 78.0067C198.034 78.0067 201.753 76.9534 204.782 74.8469C207.81 72.7403 209.324 69.1197 209.324 63.9849C209.324 58.8502 207.81 55.2625 204.782 53.2218C201.753 51.1152 198.034 50.0619 193.623 50.0619H180.787V78.0067H193.623ZM226.6 57.9615H236.771V110H226.6V57.9615ZM231.636 48.482C229.859 48.482 228.378 47.8895 227.193 46.7046C226.008 45.5197 225.415 44.0385 225.415 42.2611C225.415 40.4837 226.008 39.0025 227.193 37.8176C228.378 36.6326 229.859 36.0402 231.636 36.0402C233.414 36.0402 234.895 36.6656 236.08 37.9163C237.265 39.1013 237.857 40.5495 237.857 42.2611C237.857 43.9727 237.265 45.4538 236.08 46.7046C234.895 47.8895 233.414 48.482 231.636 48.482ZM261.432 83.9314L244.645 57.9615H256.1L268.245 78.0067H268.541L280.687 57.9615H292.043L275.256 83.9314L291.944 110H280.588L268.541 90.0536H268.245L256.198 110H244.744L261.432 83.9314ZM319.923 110.691C314.525 110.691 309.982 109.408 306.296 106.84C302.609 104.273 299.877 100.948 298.1 96.8669C296.323 92.7197 295.434 88.3091 295.434 83.6351C295.434 78.9612 296.323 74.5835 298.1 70.5021C299.877 66.3548 302.609 62.9975 306.296 60.4301C310.048 57.8628 314.623 56.5791 320.021 56.5791C327.131 56.5791 332.792 58.916 337.005 63.59C341.219 68.1981 343.325 74.9127 343.325 83.7339V86.5975H305.407V87.2887C305.407 89.9219 306 92.3905 307.185 94.6946C308.369 96.9986 310.048 98.8748 312.221 100.323C314.393 101.705 316.894 102.397 319.725 102.397C322.819 102.397 325.485 101.64 327.723 100.126C329.962 98.5456 331.574 96.4391 332.562 93.8059H342.634C341.317 98.6773 338.717 102.726 334.833 105.951C330.949 109.111 325.979 110.691 319.923 110.691ZM333.352 79.5866C333.089 74.2544 331.739 70.4034 329.303 68.0335C326.933 65.5978 323.774 64.3799 319.824 64.3799C315.611 64.3799 312.221 65.7624 309.653 68.5272C307.152 71.2921 305.835 74.9785 305.703 79.5866H333.352ZM352.218 110V35.2502H361.401V110H352.218ZM367.553 57.8628H380.291L389.178 95.1883H389.672L400.238 57.8628H412.186L423.048 95.1883H423.541L432.132 57.8628H444.87L431.54 110H415.049L406.656 78.5992H405.965L397.67 110H381.18L367.553 57.8628ZM466.747 110.79C460.295 110.79 455.259 108.321 451.639 103.384C448.018 98.4469 446.208 91.9297 446.208 83.8326C446.208 75.6039 448.018 69.0209 451.639 64.0837C455.325 59.0806 460.46 56.5791 467.043 56.5791C471.454 56.5791 474.91 57.5994 477.411 59.6402C479.913 61.6151 481.69 63.7216 482.743 65.9598H483.533V57.8628H497.259V110H483.533V101.014H482.743C481.558 103.45 479.715 105.688 477.214 107.729C474.712 109.77 471.223 110.79 466.747 110.79ZM471.783 99.7305C475.667 99.7305 478.596 98.1506 480.571 94.9908C482.546 91.831 483.533 88.0457 483.533 83.6351C483.533 79.2246 482.546 75.4723 480.571 72.3782C478.662 69.2842 475.733 67.7372 471.783 67.7372C467.833 67.7372 464.904 69.2842 462.994 72.3782C461.085 75.4723 460.131 79.2246 460.131 83.6351C460.131 88.1116 461.085 91.9297 462.994 95.0895C464.904 98.1835 467.833 99.7305 471.783 99.7305ZM500.872 57.8628H513.807L526.249 96.1757H526.841L539.086 57.8628H552.021L534.642 110H518.152L500.872 57.8628ZM578.581 110.79C573.117 110.79 568.509 109.539 564.756 107.038C561.004 104.47 558.206 101.146 556.363 97.0644C554.586 92.9172 553.697 88.4736 553.697 83.7339C553.697 78.9941 554.586 74.5835 556.363 70.5021C558.206 66.3548 561.004 62.9975 564.756 60.4301C568.509 57.8628 573.15 56.5791 578.679 56.5791C585.986 56.5791 591.779 58.916 596.058 63.59C600.403 68.2639 602.576 75.0114 602.576 83.8326V87.5849H566.83V88.3749C566.83 91.5347 567.916 94.2667 570.089 96.5707C572.261 98.8089 574.993 99.928 578.284 99.928C580.852 99.928 583.024 99.3356 584.802 98.1506C586.579 96.9657 587.863 95.3529 588.653 93.3121H602.082C600.699 98.4469 598 102.66 593.985 105.951C589.969 109.177 584.834 110.79 578.581 110.79ZM589.443 78.6979C589.311 74.5506 588.258 71.4895 586.283 69.5146C584.308 67.5398 581.708 66.5523 578.482 66.5523C575.059 66.5523 572.36 67.6385 570.385 69.8109C568.41 71.9833 567.357 74.9456 567.225 78.6979H589.443Z" fill="#FEFEFE"/>
<path d="M54.1696 25.807L54.2774 25.7081L54.3808 25.6047L54.7788 25.2067L55.3385 24.8869L55.358 24.8796L56.1121 24.7288H109.33C123.484 26.2316 130.374 39.4997 127.735 51.1151C126.974 53.6963 125.008 57.8128 121.721 61.1925C118.495 64.5088 114.194 66.9506 108.414 66.9131L108.392 66.913H108.37H89.866H83.1373V73.6417V102.859C83.0971 102.953 83.007 103.137 82.8341 103.28C82.7375 103.36 82.5021 103.528 81.978 103.648C81.5515 103.745 80.8662 103.824 79.8523 103.737L63.9445 95.6013L54.1518 90.5928V101.592V120.141C54.1379 120.173 54.1211 120.208 54.1008 120.246C54.0084 120.421 53.8866 120.574 53.7352 120.694C53.604 120.799 53.3441 120.967 52.8237 121.077C52.4137 121.163 51.7675 121.227 50.8258 121.132L11.6564 98.8206C9.25797 96.5708 7.88174 93.8229 7.21505 91.2C6.45947 88.2272 6.76455 86.0554 6.9437 85.5342L7.03627 85.265L7.10576 84.9888C7.55664 83.1972 9.43718 79.661 12.636 77.0948C15.562 74.7474 19.2405 73.4443 23.9495 74.8018L24.8629 75.0651H24.8995L43.555 84.2123L53.2461 88.9641V78.1707V29.1283V29.1282C53.2461 28.8371 53.3169 27.9875 53.5856 27.0883C53.8595 26.1713 54.1494 25.8307 54.1686 25.8081C54.1694 25.8072 54.1698 25.8068 54.1696 25.807Z" stroke="url(#paint0_linear_86_12)" stroke-width="13.4575"/>
<defs>
<linearGradient id="paint0_linear_86_12" x1="126.041" y1="24.9616" x2="0.0310426" y2="116.623" gradientUnits="userSpaceOnUse">
<stop offset="0.140625" stop-color="#D3005D"/>
<stop offset="0.59375" stop-color="#8402AC"/>
<stop offset="1" stop-color="#452AD9"/>
</linearGradient>
</defs>
</svg>

<svg xmlns="http://www.w3.org/2000/svg" width="607" height="129" fill="none" xmlns:v="https://vecta.io/nano"><path d="M195.006 40.879c5.595 0 10.203 1.119 13.824 3.357s6.254 5.102 7.9 8.591 2.468 7.208 2.468 11.158c0 3.884-.823 7.538-2.468 10.961s-4.279 6.254-7.9 8.492c-3.621 2.172-8.229 3.258-13.824 3.258h-14.219V110h-9.974V40.879h24.193zm-1.383 37.128c4.411 0 8.13-1.053 11.159-3.16s4.542-5.727 4.542-10.862-1.514-8.722-4.542-10.763c-3.029-2.107-6.748-3.16-11.159-3.16h-12.836v27.945h12.836zM226.6 57.962h10.171V110H226.6V57.962zm5.036-9.48c-1.777 0-3.258-.593-4.443-1.777s-1.778-2.666-1.778-4.443.593-3.259 1.778-4.443 2.666-1.777 4.443-1.777 3.259.625 4.444 1.876c1.185 1.185 1.777 2.633 1.777 4.345a6.24 6.24 0 0 1-1.777 4.444c-1.185 1.185-2.666 1.777-4.444 1.777zm29.796 35.449l-16.787-25.97H256.1l12.145 20.045h.296l12.146-20.045h11.356l-16.787 25.97L291.944 110h-11.356l-12.047-19.946h-.296L256.198 110h-11.454l16.688-26.069zm58.491 26.76c-5.398 0-9.941-1.283-13.627-3.851s-6.419-5.892-8.196-9.973c-1.777-4.147-2.666-8.558-2.666-13.232s.889-9.052 2.666-13.133c1.777-4.147 4.509-7.505 8.196-10.072 3.752-2.567 8.327-3.851 13.725-3.851 7.11 0 12.771 2.337 16.984 7.011 4.214 4.608 6.32 11.323 6.32 20.144v2.864h-37.918v.691c0 2.633.593 5.102 1.778 7.406s2.863 4.18 5.036 5.628c2.172 1.382 4.673 2.074 7.504 2.074 3.094 0 5.76-.757 7.998-2.271 2.239-1.58 3.851-3.687 4.839-6.32h10.072c-1.317 4.871-3.917 8.92-7.801 12.145-3.884 3.16-8.854 4.74-14.91 4.74zm13.429-31.104c-.263-5.332-1.613-9.183-4.049-11.553-2.37-2.436-5.529-3.654-9.479-3.654-4.213 0-7.603 1.382-10.171 4.147-2.501 2.765-3.818 6.451-3.95 11.059h27.649zM352.218 110V35.25h9.183V110h-9.183zm15.335-52.137h12.738l8.887 37.326h.494l10.566-37.325h11.948l10.862 37.326h.493l8.591-37.325h12.738L431.54 110h-16.491l-8.393-31.401h-.691L397.67 110h-16.49l-13.627-52.137zm99.194 52.927c-6.452 0-11.488-2.469-15.108-7.406s-5.431-11.454-5.431-19.551c0-8.229 1.81-14.812 5.431-19.749 3.686-5.003 8.821-7.505 15.404-7.505 4.411 0 7.867 1.02 10.368 3.061 2.502 1.975 4.279 4.081 5.332 6.32h.79v-8.097h13.726V110h-13.726v-8.986h-.79c-1.185 2.436-3.028 4.674-5.529 6.715s-5.991 3.061-10.467 3.061zm5.036-11.059c3.884 0 6.813-1.58 8.788-4.74s2.962-6.945 2.962-11.356-.987-8.163-2.962-11.257c-1.909-3.094-4.838-4.641-8.788-4.641s-6.879 1.547-8.789 4.641-2.863 6.846-2.863 11.257c0 4.477.954 8.295 2.863 11.454 1.91 3.094 4.839 4.641 8.789 4.641zm29.089-41.868h12.935l12.442 38.313h.592l12.245-38.313h12.935L534.642 110h-16.49l-17.28-52.137zm77.709 52.927c-5.464 0-10.072-1.251-13.825-3.752-3.752-2.568-6.55-5.892-8.393-9.974-1.777-4.147-2.666-8.591-2.666-13.33s.889-9.15 2.666-13.232c1.843-4.147 4.641-7.505 8.393-10.072s8.394-3.851 13.923-3.851c7.307 0 13.1 2.337 17.379 7.011 4.345 4.674 6.518 11.421 6.518 20.243v3.752H566.83v.79c0 3.16 1.086 5.892 3.259 8.196 2.172 2.238 4.904 3.357 8.195 3.357 2.568 0 4.74-.592 6.518-1.777s3.061-2.798 3.851-4.838h13.429c-1.383 5.135-4.082 9.348-8.097 12.639-4.016 3.226-9.151 4.839-15.404 4.839zm10.862-32.092c-.132-4.147-1.185-7.208-3.16-9.183s-4.575-2.962-7.801-2.962c-3.423 0-6.122 1.086-8.097 3.259s-3.028 5.135-3.16 8.887h22.218z" fill="#fefefe"/><path d="M54.1696 25.807L54.2774 25.7081L54.3808 25.6047L54.7788 25.2067L55.3385 24.8869L55.358 24.8796L56.1121 24.7288H109.33C123.484 26.2316 130.374 39.4997 127.735 51.1151C126.974 53.6963 125.008 57.8128 121.721 61.1925C118.495 64.5088 114.194 66.9506 108.414 66.9131L108.392 66.913H108.37H89.866H83.1373V73.6417V102.859C83.0971 102.953 83.007 103.137 82.8341 103.28C82.7375 103.36 82.5021 103.528 81.978 103.648C81.5515 103.745 80.8662 103.824 79.8523 103.737L63.9445 95.6013L54.1518 90.5928V101.592V120.141C54.1379 120.173 54.1211 120.208 54.1008 120.246C54.0084 120.421 53.8866 120.574 53.7352 120.694C53.604 120.799 53.3441 120.967 52.8237 121.077C52.4137 121.163 51.7675 121.227 50.8258 121.132L11.6564 98.8206C9.25797 96.5708 7.88174 93.8229 7.21505 91.2C6.45947 88.2272 6.76455 86.0554 6.9437 85.5342L7.03627 85.265L7.10576 84.9888C7.55664 83.1972 9.43718 79.661 12.636 77.0948C15.562 74.7474 19.2405 73.4443 23.9495 74.8018L24.8629 75.0651H24.8995L43.555 84.2123L53.2461 88.9641V78.1707V29.1283V29.1282C53.2461 28.8371 53.3169 27.9875 53.5856 27.0883C53.8595 26.1713 54.1494 25.8307 54.1686 25.8081C54.1694 25.8072 54.1698 25.8068 54.1696 25.807Z" stroke="url(#A)" stroke-width="13.458"/><defs><linearGradient id="A" x1="126.041" y1="24.962" x2=".031" y2="116.623" gradientUnits="userSpaceOnUse"><stop offset=".141" stop-color="#d3005d"/><stop offset=".594" stop-color="#8402ac"/><stop offset="1" stop-color="#452ad9"/></linearGradient></defs></svg>
